X:1
T:James Gibb editions
T:Lieto non hebbi - Festa
T:#
%%score [ 1 2 3 ]
L:1/8
Q:1/4=120
M:2/2
K:C
V:1 treble nm="Soprano I" snm="S I"
V:2 treble nm="Soprano II" snm="S II"
V:3 treble nm="Alto" snm="A"
V:1
"^Lieto non hebbi""^Costanzo Festa\n(1490-1545)" d6 d2 | d4 c4 | c4 c2 c2 | d6 c2 | B2 c2 A4 | %5
w: Lie- to|non heb-|bi mai un|gior- no|sol' a- mo-|
 G3 (A Bc d2- | dc A2) B2 c2 |[M:2/2] A2 d4 c2 | d2 (B3 G) (c2- | c2 B2) c4 | z2 c2 c2 c2 | %11
w: re, un * * *|* * * gior- no|sol' a- mo-|re, a\- * mo\-|* * re.|Poi ch'io ti|
 d2 d2 (e2 c2- | c2 BA B2 A2) | B4 z2 A2 | B2 c2 d2 G2 | z2 B2 c2 (AB | cd e3 d d2) | (e6 de | %18
w: dett' il co\- *||re, Et|tu lo sa- i,|et tu lo *||sa\- * *|
 dcBA B4) | A8 | (c6 BA) | B2 c2 d2 A2 | (B2 c2 B2 G2 | d3 c A2 B2) | c8 | z2 A2 A2 _B2- | %26
w: |i.|Io * *|mi go- dea di-|sciol\- * * *||to|in dol- ce|
 B2 (A3 G/F/) G2 | A2 (DE FGAB | cG) c4 B2 | c2 (CD EFGA | BcdB cBGA | BA^G^F G A2 G) | A8 | %33
w: * li\- * * ber-|tà. Ma * * * * *|* * non du-|ro già * * * * *|||mol-|
 A4 z2 E2 | (F3 G A2) _B2 | A2 (d3 ^c/B/ c2) | d4 z2 d2 | c2 A2 c3 d | e2 (B3 A/G/ A2) | %39
w: to la|mia * * fe-|li- ci\- * * *|tà, Per|che la cru- del-|tà d'u\- * * *|
 B2 c2 B2 G2 | A8 | A4 (B3 A | B2 c3 B G2 | d3 c A2 d2- | dc BA/G/) A4 | z2 G2 A2 A2 | %46
w: na in- vi- da|et|ni- mi\- *|||* * * * * ca,|La mia quie-|
 D2 (G4 ^F2) | G2 B2 A2 (d2- | d2 c2) d2 (AB | cd[Q:1/4=118] e4[Q:1/4=115] d2) |[Q:1/4=111] e8 | %51
w: te~~an- ti\- *|qua vols' in gua\-|* * i, vol\- *||se|
[Q:1/4=106] A4[Q:1/4=103] B4 |[Q:1/4=102] A16 |] %53
w: in gua-|i.|
V:2
 A8 | A4 A4 | A6 G2 | F2 E2 D2 (A2- | AG) G4 ^F2 | G4 G4 | z4 G4 |[M:2/2] F2 F2 E4 | D4 (G4 | %9
w: Lie-|to non|heb- bi|mai un gior- no|* * sol' a-|mo- re,|un|gior- no sol'|a- mo\-|
 F4) E4- | E4 z2 E2 | F2 F2 G2 G2 | (A3 G/F/ G2 A2- | A2 G2) A4 | z2 E2 F2 G2 | A2 D2 z2 A2 | %16
w: * re.|* Poi|ch'io ti dett' il|co\- * * * *|* * re,|Et tu lo|sa- i, et|
 A2 G2 (F3 E/D/) | C2 c2 c2 (B2- | BA) (A4 ^G2) | A8 | E8 | E4 F4 | G4 G4 | F8 | E4 z2 A2 | %25
w: tu lo sa\- * *|i, et tu lo|* * sa\- *|i.|Io|mi go-|dea di-|sciol-|to in|
 (A3 G F2) E2 | D4 G4 | F8 | z4 D4 | E4 C4 | D4 E4 | (D6 CB,) | C4 z2 E2 | E3 D C2 B,2 | (A,4 D4) | %35
w: dol\- * * ce|li- ber-|tà.|Ma|non du-|ro già|mol\- * *|to la|mia fe- li- ci-|tà, *|
 z4 z2 G2 | F2 D2 F3 G | A2 (A4 GF | G2) E4 D2 | E4 z4 | F8 | F4 D4 | E4 E4 | (F3 E FD) (A2 | %44
w: Per|che la cru- del-|tà, la * *|* cru- del-|tà|d'u-|na in-|vi- da|et * * * ni\-|
 AG) (G4 ^F2) | G4 z4 | z2 G2 A2 A2 | (D3 E F2) F2 | (G3 E FG A2- | A2 G2 F3 E/D/) | %50
w: * * mi\- *|ca,|La mia quie-|te * * an-|ti\- * * * *||
 C2 c2 c2 (B2- | BA A4 ^G2) | A16 |] %53
w: qua vols' in gua\-||i.|
V:3
 D6 D2 | D4 A4- | A2 G2 F2 E2 | D2 C2 B,2 A,2 | (E4 D4) | G,4 G4 | F2 F2 E2 E2 |[M:2/2] (D4 A4) | %8
w: Lie- to|non heb\-|* bi mai un|gior- no sol' a-|mo\- *|re, un|gior- no sol' a-|mo\- *|
 F2 G2 (E2 C2 | D4) C4 | z2 C2 A,2 A,2 | D2 D2 (C4 | F4 E2 F2 | D2 E2 F4) | E4 z2 E2 | %15
w: re, a- mo\- *|* re.|Poi ch'io ti|dett' il co\-|||re, Et|
 F2 G2 A2 D2 | z2 C2 (D3 C | A,B,CD EFGE | F2) F2 E4 | A,8 | (A6 GF) | G2 A2 D2 F2 | %22
w: tu lo sa- i,|et tu *||* lo sa-|i.|Io * *|mi go- dea di-|
 (E2 C2 G3 F/E/) | D8 | z2 A2 (A3 G | FE) D4 (G2- | GFED E2) E2 | (DEFG A2) (F2- | FEDC D2) D2 | %29
w: sciol\- * * * *|to|in dol\- *|* * ce li\-|* * * * * ber-|tà, * * * * li\-|* * * * * ber-|
 C4 A,4 | G,2 G,2 C4 | D4 B,4 | A,4 z2 A,2 | C3 B, A,2 G,2 | A,2 (D3 CDE) | F2 G2 E2 E2 | %36
w: tà. Ma|non du- ro|già mol-|to la|mia fe- li- ci-|tà, la * * *|mia fe- li- ci-|
 D2 G2 F2 D2 | F3 G A4 | E2 G2 F4 | E8 | D6 E2 | F4 G4 | E4 C4 | D8 | D4 z2 D2 | E2 E2 (A,4- | %46
w: tà, Per che la|cru- del- tà|d'u- na~in- vi-|da,|d'u- na~in-|vi- da|et ni-|mi-|ca, La|mia quie- te|
 B,2) C2 A,4 | G,2 G2 F2 D2 | E4 D2 (F2- | FE C2) (D3 C | A,B,CD EFGE | F4 E4) | A,16 |] %53
w: * an- ti-|qua vol- se in|gua- i, in|* * * gua\- *|||i.|

